X:124
T:Hare in the Corn, The
R:slide
Z:id:hn-slide-124
M:6/8
L:1/8
K:G
B2B A2G | BdB AGA | B2e d2B | ABA AGA |
B3 AGA | BdB AGA | B2e d2B |1 G3 B2A :|2 G3 GBd ||
|: e3 edB | e2f g2B | BAB d2B | ABA ABd |
e/f/ge edB | e2f g2B | BAB d2B |1 G3 GBd :|2 G3 B2A ||

